X: 173
T:Tink a Tink
M:4/4
L:1/8
Q:160
S:Manuscript
A:English
K:G
G2 d>B G2 d>B| c>dc>B A>F D2| G2 d>B G2 d>B| c>AG>F G4:|
|: d2 g>f e>dc>B|A>Bc>d B2 G2| d2 g>f e>dc>B| c>Ad>F G2 G2:|

